app/images/dist/company.svg

<svg width="20" height="20" viewBox="0 0 20 20" fill="none" xmlns="http://www.w3.org/2000/svg">
<path d="M10.3096 1.7917L17.8096 4.79168C18.1013 4.90835 18.3346 5.25834 18.3346 5.56667V8.33335C18.3346 8.79168 17.9596 9.16668 17.5013 9.16668H2.5013C2.04297 9.16668 1.66797 8.79168 1.66797 8.33335V5.56667C1.66797 5.25834 1.90131 4.90835 2.19297 4.79168L9.69297 1.7917C9.85964 1.72503 10.143 1.72503 10.3096 1.7917Z" stroke="#292D32" stroke-width="1.5" stroke-miterlimit="10" stroke-linecap="round" stroke-linejoin="round"/>
<path d="M18.3346 18.3333H1.66797V15.8333C1.66797 15.375 2.04297 15 2.5013 15H17.5013C17.9596 15 18.3346 15.375 18.3346 15.8333V18.3333Z" stroke="#292D32" stroke-width="1.5" stroke-miterlimit="10" stroke-linecap="round" stroke-linejoin="round"/>
<path d="M3.33203 15.0001V9.16675" stroke="#292D32" stroke-width="1.5" stroke-miterlimit="10" stroke-linecap="round" stroke-linejoin="round"/>
<path d="M6.66797 15.0001V9.16675" stroke="#292D32" stroke-width="1.5" stroke-miterlimit="10" stroke-linecap="round" stroke-linejoin="round"/>
<path d="M10 15V9.16663" stroke="#292D32" stroke-width="1.5" stroke-miterlimit="10" stroke-linecap="round" stroke-linejoin="round"/>
<path d="M13.332 15.0001V9.16675" stroke="#292D32" stroke-width="1.5" stroke-miterlimit="10" stroke-linecap="round" stroke-linejoin="round"/>
<path d="M16.668 15.0001V9.16675" stroke="#292D32" stroke-width="1.5" stroke-miterlimit="10" stroke-linecap="round" stroke-linejoin="round"/>
<path d="M0.832031 18.3333H19.1654" stroke="#292D32" stroke-width="1.5" stroke-miterlimit="10" stroke-linecap="round" stroke-linejoin="round"/>
<path d="M10 7.08337C10.6904 7.08337 11.25 6.52373 11.25 5.83337C11.25 5.14302 10.6904 4.58337 10 4.58337C9.30964 4.58337 8.75 5.14302 8.75 5.83337C8.75 6.52373 9.30964 7.08337 10 7.08337Z" stroke="#292D32" stroke-width="1.5" stroke-miterlimit="10" stroke-linecap="round" stroke-linejoin="round"/>
</svg>

<svg width="20" height="20" fill="none" xmlns="http://www.w3.org/2000/svg"><path d="m10.31 1.792 7.5 3a.902.902 0 0 1 .525.775v2.766a.836.836 0 0 1-.834.834h-15a.836.836 0 0 1-.833-.834V5.567a.9.9 0 0 1 .525-.775l7.5-3a.976.976 0 0 1 .617 0Zm8.025 16.541H1.668v-2.5c0-.458.375-.833.833-.833h15c.459 0 .834.375.834.833v2.5ZM3.332 15V9.167M6.668 15V9.167M10 15V9.167M13.332 15V9.167M16.668 15V9.167M.832 18.333h18.333" stroke="#292D32" stroke-width="1.5" stroke-miterlimit="10" stroke-linecap="round" stroke-linejoin="round"/><path d="M10 7.083a1.25 1.25 0 1 0 0-2.5 1.25 1.25 0 0 0 0 2.5Z" stroke="#292D32" stroke-width="1.5" stroke-miterlimit="10" stroke-linecap="round" stroke-linejoin="round"/></svg>
